X: 42851
T: Wild Hares
R: jig
M: 6/8
K: Eminor
B2B E3|GAB cBA|BBE EDE|DED AFA|
B2B E3|GAB cBA|Bee gfe|1 Bed e3:|2 Bed e2f||
gbb bag|faa agf|egf eBA|Bed e2f|
gbb bag|faa agf|egf eBA|BGF E3:|

